public/dokumentasi/Group.svg

<svg width="907" height="360" viewBox="0 0 907 360" fill="none" xmlns="http://www.w3.org/2000/svg">
<path d="M-173.809 283.517C-191.723 292.677 -210.263 302.156 -231.251 304.17L-231.255 304.19C-242.871 305.296 -255.308 302.907 -265.559 296.926C-263.042 301.883 -259.921 306.511 -255.871 310.976C-237.006 331.762 -208.378 326.738 -180.666 321.874L-180.529 321.85C-177.075 321.251 -173.705 320.658 -170.386 320.118C-122.672 312.413 -75.3652 323.654 -40.638 350.916C-26.3537 362.129 -13.7027 375.33 -1.45486 388.11L-1.35785 388.211C16.0938 406.425 32.5821 423.626 53.599 435.974C113.748 471.292 188.313 448.165 245.052 422.741C320.742 388.822 400.46 399.66 517.861 453.293C536.94 462.005 556.185 471.481 574.804 480.65L575.462 480.974C616.71 501.302 669.523 525.488 716.304 534.266C765.229 543.447 806.584 538.107 853.967 528.564C726.895 535.51 665.031 481.648 651.887 472.983C625.264 455.425 597.724 437.281 569.604 421.726C544.539 407.861 518.241 396.613 491.485 388.311C445.943 374.175 397.654 368.167 347.931 370.423C324.346 371.483 299.597 374.67 274.42 379.848C268.821 381.014 263.308 382.255 257.838 383.486L257.365 383.592C230.215 389.724 204.491 395.491 175.674 389.758C150.47 384.73 127.63 371.609 107.754 350.775C100.074 342.717 93.6627 333.262 87.4497 324.099L87.3322 323.926C78.7994 311.322 70.7213 299.428 59.8069 291.027C46.8395 281.057 25.7071 277.53 11.7001 283.004C2.93918 286.432 -2.33736 292.966 -3.94715 302.411C-4.71864 306.952 -3.44418 311.847 -0.585423 315.173C0.966873 316.963 3.7065 319.118 7.92299 319.036C9.62401 318.993 11.5152 318.483 11.6197 317.687C12.0172 314.499 14.9249 312.212 18.1329 312.613C21.3776 313.042 23.6082 315.918 23.207 319.126C22.3595 326.015 16.4431 330.571 8.11849 330.714C1.30555 330.821 -4.94852 328 -9.44215 322.764C-13.5008 318.005 -15.7199 311.766 -15.8038 305.396C-15.9762 305.197 -16.1838 305.075 -16.3121 304.863C-30.0885 282.914 -42.8202 270.751 -57.589 265.466C-80.3751 257.288 -107.701 258.12 -138.746 267.926C-150.615 271.66 -161.812 277.384 -173.644 283.433L-173.776 283.501L-173.809 283.517Z" fill="url(#paint0_linear_309_9081)"/>
<path d="M-624.285 463.47C-654.675 490.196 -686.125 517.853 -726.044 532.17L-726.041 532.211C-748.139 540.117 -773.567 541.616 -796.512 535.033C-789.151 543.449 -780.775 550.927 -770.669 557.626C-723.602 588.809 -670.28 564.841 -618.665 541.639L-618.41 541.525C-611.972 538.648 -605.697 535.823 -599.496 533.127C-510.292 494.485 -412.505 492.98 -331.31 528.933C-297.912 543.722 -266.715 563.193 -236.511 582.043L-236.272 582.192C-193.233 609.061 -152.575 634.431 -105.491 648.097C29.2511 687.171 136.196 614.64 234.22 536.988C364.984 433.393 640.352 586.121 837.026 531.881C741.749 547.178 696.079 557.081 508.292 464.437C455.221 438.255 403.103 423.076 356.83 416.517C337.178 413.732 283.667 420.099 266.99 425.984C219.11 442.878 203.179 455.609 170.492 463.107C133.2 471.661 69.7265 477.012 -13.251 453.097C-31.5732 447.817 -48.978 439.538 -63.8975 427.664C-74.0575 419.578 -83.8044 410.921 -93.3754 402.42L-93.6927 402.138C-116.567 381.791 -139.71 373.43 -165.146 362.456C-195.361 349.439 -238.304 353.025 -262.9 370.631C-278.282 381.651 -285.334 397.002 -283.796 416.211C-283.052 425.445 -278.144 434.357 -270.925 439.426C-267.012 442.147 -260.605 444.991 -252.425 442.743C-249.131 441.818 -245.696 439.888 -245.887 438.285C-246.69 431.874 -242.154 425.974 -235.701 425.168C-229.164 424.398 -223.391 428.901 -222.585 435.354C-220.827 449.202 -230.105 461.014 -246.263 465.414C-259.491 468.995 -273.08 466.591 -284.432 458.609C-294.701 451.341 -302.115 440.276 -305.432 427.899C-305.867 427.597 -306.332 427.462 -306.687 427.113C-344.41 391.144 -375.251 373.735 -406.658 370.745C-455.128 366.082 -507.987 381.233 -563.651 415.718C-584.942 428.873 -603.937 445.577 -624.009 463.227L-624.231 463.423L-624.285 463.47Z" fill="url(#paint1_linear_309_9081)"/>
<path d="M-624.285 463.47C-654.675 490.196 -686.125 517.853 -726.044 532.17L-726.041 532.211C-748.139 540.117 -773.567 541.616 -796.512 535.033C-789.151 543.449 -780.775 550.927 -770.669 557.626C-723.602 588.809 -670.28 564.841 -618.665 541.639L-618.41 541.525C-611.972 538.648 -605.697 535.823 -599.496 533.127C-510.292 494.485 -412.505 492.98 -331.31 528.933C-297.912 543.722 -266.715 563.193 -236.511 582.043L-236.272 582.192C-193.233 609.061 -152.575 634.431 -105.491 648.097C29.2511 687.171 136.196 614.64 234.22 536.988C364.984 433.393 640.352 586.121 837.026 531.881C741.749 547.178 696.079 557.081 508.292 464.437C455.221 438.255 403.103 423.076 356.83 416.517C337.178 413.732 283.667 420.099 266.99 425.984C219.11 442.878 203.179 455.609 170.492 463.107C133.2 471.661 69.7265 477.012 -13.251 453.097C-31.5732 447.817 -48.978 439.538 -63.8975 427.664C-74.0575 419.578 -83.8044 410.921 -93.3754 402.42L-93.6927 402.138C-116.567 381.791 -139.71 373.43 -165.146 362.456C-195.361 349.439 -238.304 353.025 -262.9 370.631C-278.282 381.651 -285.334 397.002 -283.796 416.211C-283.052 425.445 -278.144 434.357 -270.925 439.426C-267.012 442.147 -260.605 444.991 -252.425 442.743C-249.131 441.818 -245.696 439.888 -245.887 438.285C-246.69 431.874 -242.154 425.974 -235.701 425.168C-229.164 424.398 -223.391 428.901 -222.585 435.354C-220.827 449.202 -230.105 461.014 -246.263 465.414C-259.491 468.995 -273.08 466.591 -284.432 458.609C-294.701 451.341 -302.115 440.276 -305.432 427.899C-305.867 427.597 -306.332 427.462 -306.687 427.113C-344.41 391.144 -375.251 373.735 -406.658 370.745C-455.128 366.082 -507.987 381.233 -563.651 415.718C-584.942 428.873 -603.937 445.577 -624.009 463.227L-624.231 463.423L-624.285 463.47Z" fill="url(#paint2_linear_309_9081)"/>
<path d="M748.877 495.482C778.51 509.288 808.95 519.04 839.341 524.623C847.773 526.172 856.183 527.383 864.588 528.279C855.369 529.992 846.419 531.379 837.774 531.902C808.112 533.727 781.059 527.41 742.149 512.536C727.496 506.165 712.739 498.312 698.301 489.18C684.987 480.756 671.452 471.831 658.364 463.197C631.554 445.521 603.831 427.238 575.312 411.464C549.544 397.219 522.511 385.648 495.005 377.104C448.179 362.564 398.544 356.372 347.447 358.71C323.226 359.821 297.881 363.066 272.097 368.362C266.273 369.57 260.539 370.858 254.825 372.149C228.916 378.008 204.305 383.519 177.992 378.267C163.131 375.307 149.154 369.123 136.167 359.944C135.908 359.645 135.622 359.383 135.312 359.138C116.618 345.065 112.137 308.247 117.384 290.043C121.142 276.98 126.743 265.948 134.043 257.277C152.37 235.457 184.554 225.818 212.217 233.847C237.064 241.046 255.399 268.222 252.251 293.208C250.452 307.551 243.684 320.27 234.148 327.235C226.155 333.082 216.334 334.999 204.929 332.903C204.181 332.766 203.444 332.798 202.752 332.922C193.031 327.812 185.163 320.347 183.778 310.937C182.742 304.058 186.712 294.963 192.584 290.649C194.713 289.075 200.945 287.921 205.228 289.523C207.67 290.452 207.973 291.762 208.103 292.308C208.797 295.467 211.925 297.442 215.063 296.744C218.202 296.045 220.197 292.921 219.499 289.783C218.34 284.595 214.742 280.631 209.347 278.595C201.916 275.808 191.526 276.951 185.702 281.232C176.358 288.065 170.574 301.571 172.232 312.683C176.101 338.727 209.683 351.857 231.177 352.504C248.388 353.032 264.793 348.04 280.666 343.222C287.063 341.283 293.086 339.443 299.172 337.948C328.724 330.689 351.496 326.658 373.004 324.841C430.687 319.991 485.598 327.843 540.865 348.887C582.676 364.783 615.13 393.383 649.493 423.65C679.698 450.269 710.949 477.791 748.881 495.462L748.877 495.482Z" fill="url(#paint3_linear_309_9081)"/>
<path d="M748.877 495.482C778.51 509.288 808.95 519.04 839.341 524.623C847.773 526.172 856.183 527.383 864.588 528.279C855.369 529.992 846.419 531.379 837.774 531.902C808.112 533.727 781.059 527.41 742.149 512.536C727.496 506.165 712.739 498.312 698.301 489.18C684.987 480.756 671.452 471.831 658.364 463.197C631.554 445.521 603.831 427.238 575.312 411.464C549.544 397.219 522.511 385.648 495.005 377.104C448.179 362.564 398.544 356.372 347.447 358.71C323.226 359.821 297.881 363.066 272.097 368.362C266.273 369.57 260.539 370.858 254.825 372.149C228.916 378.008 204.305 383.519 177.992 378.267C163.131 375.307 149.154 369.123 136.167 359.944C135.908 359.645 135.622 359.383 135.312 359.138C116.618 345.065 112.137 308.247 117.384 290.043C121.142 276.98 126.743 265.948 134.043 257.277C152.37 235.457 184.554 225.818 212.217 233.847C237.064 241.046 255.399 268.222 252.251 293.208C250.452 307.551 243.684 320.27 234.148 327.235C226.155 333.082 216.334 334.999 204.929 332.903C204.181 332.766 203.444 332.798 202.752 332.922C193.031 327.812 185.163 320.347 183.778 310.937C182.742 304.058 186.712 294.963 192.584 290.649C194.713 289.075 200.945 287.921 205.228 289.523C207.67 290.452 207.973 291.762 208.103 292.308C208.797 295.467 211.925 297.442 215.063 296.744C218.202 296.045 220.197 292.921 219.499 289.783C218.34 284.595 214.742 280.631 209.347 278.595C201.916 275.808 191.526 276.951 185.702 281.232C176.358 288.065 170.574 301.571 172.232 312.683C176.101 338.727 209.683 351.857 231.177 352.504C248.388 353.032 264.793 348.04 280.666 343.222C287.063 341.283 293.086 339.443 299.172 337.948C328.724 330.689 351.496 326.658 373.004 324.841C430.687 319.991 485.598 327.843 540.865 348.887C582.676 364.783 615.13 393.383 649.493 423.65C679.698 450.269 710.949 477.791 748.881 495.462L748.877 495.482Z" fill="url(#paint4_linear_309_9081)"/>
<defs>
<linearGradient id="paint0_linear_309_9081" x1="865.476" y1="513.261" x2="-267.077" y2="305.188" gradientUnits="userSpaceOnUse">
<stop stop-color="#FCF0D6"/>
<stop offset="1" stop-color="#FFC446"/>
</linearGradient>
<linearGradient id="paint1_linear_309_9081" x1="831.081" y1="443.278" x2="-795.346" y2="552.409" gradientUnits="userSpaceOnUse">
<stop stop-color="#FCF0D6"/>
<stop offset="1" stop-color="#FFC446"/>
</linearGradient>
<linearGradient id="paint2_linear_309_9081" x1="831.081" y1="443.278" x2="-795.346" y2="552.409" gradientUnits="userSpaceOnUse">
<stop stop-color="#3C3024"/>
<stop offset="1" stop-color="#BD7B49"/>
</linearGradient>
<linearGradient id="paint3_linear_309_9081" x1="878.948" y1="450.118" x2="113.6" y2="309.508" gradientUnits="userSpaceOnUse">
<stop stop-color="#FCF0D6"/>
<stop offset="1" stop-color="#FFC446"/>
</linearGradient>
<linearGradient id="paint4_linear_309_9081" x1="878.948" y1="450.118" x2="113.6" y2="309.508" gradientUnits="userSpaceOnUse">
<stop stop-color="#3C3024"/>
<stop offset="1" stop-color="#BD7B49"/>
</linearGradient>
</defs>
</svg>

<svg xmlns="http://www.w3.org/2000/svg" width="907" height="360" fill="none" viewBox="0 0 907 360"><path fill="url(#a)" d="M-173.81 283.52c-17.91 9.16-36.45 18.64-57.44 20.65v.02c-11.62 1.11-24.06-1.28-34.31-7.26a63.6 63.6 0 0 0 9.69 14.05c18.86 20.78 47.49 15.76 75.2 10.89l.14-.02c3.46-.6 6.82-1.19 10.14-1.73 47.72-7.71 95.02 3.53 129.75 30.8 14.29 11.21 26.94 24.41 39.19 37.19l.09.1c17.45 18.22 33.94 35.42 54.96 47.76 60.15 35.32 134.71 12.2 191.45-13.23 75.69-33.92 155.41-23.08 272.81 30.55 19.08 8.71 38.32 18.19 56.94 27.36l.66.32c41.25 20.33 94.06 44.52 140.84 53.3 48.93 9.18 90.28 3.84 137.67-5.71-127.08 6.95-188.94-46.91-202.08-55.58-26.63-17.55-54.17-35.7-82.29-51.25-25.06-13.87-51.36-25.12-78.11-33.42-45.55-14.13-93.84-20.14-143.56-17.89-23.58 1.06-48.33 4.25-73.51 9.43-5.6 1.16-11.11 2.4-16.58 3.64l-.47.1c-27.15 6.13-52.88 11.9-81.7 6.17-25.2-5.03-48.04-18.15-67.92-38.99-7.68-8.05-14.09-17.51-20.3-26.67l-.12-.17c-8.53-12.61-16.61-24.5-27.52-32.9-12.97-9.97-34.1-13.5-48.11-8.03-8.76 3.43-14.04 9.97-15.65 19.41-.77 4.54.51 9.44 3.36 12.76 1.56 1.79 4.3 3.95 8.51 3.87 1.7-.05 3.6-.56 3.7-1.35.4-3.19 3.3-5.48 6.51-5.08 3.25.43 5.48 3.31 5.08 6.52-.85 6.88-6.77 11.44-15.09 11.58-6.81.11-13.07-2.71-17.56-7.95-4.06-4.76-6.28-10.99-6.36-17.36-.18-.2-.38-.33-.51-.54-13.78-21.95-26.51-34.11-41.28-39.39-22.79-8.18-50.11-7.35-81.16 2.46-11.87 3.73-23.06 9.45-34.89 15.5l-.14.07z"/><path fill="url(#b)" d="M-624.28 463.47c-30.39 26.73-61.85 54.38-101.76 68.7v.04c-22.1 7.91-47.53 9.41-70.47 2.82 7.36 8.42 15.74 15.9 25.84 22.6 47.07 31.18 100.39 7.21 152.01-15.99l.25-.12c6.44-2.87 12.71-5.7 18.91-8.39 89.21-38.64 187-40.15 268.19-4.2 33.4 14.79 64.6 34.26 94.8 53.11l.24.15c43.04 26.87 83.7 52.24 130.78 65.91 134.74 39.07 241.69-33.46 339.71-111.11 130.76-103.6 406.13 49.13 602.81-5.11-95.28 15.3-140.95 25.2-328.74-67.44-53.07-26.19-105.19-41.36-151.46-47.92-19.65-2.79-73.16 3.58-89.84 9.46-47.88 16.9-63.81 29.63-96.5 37.13-37.29 8.55-100.76 13.9-183.74-10.01-18.32-5.28-35.73-13.56-50.65-25.44-10.16-8.08-19.9-16.74-29.48-25.24l-.31-.28c-22.88-20.35-46.02-28.71-71.46-39.68-30.21-13.02-73.15-9.44-97.75 8.17-15.38 11.02-22.43 26.37-20.9 45.58.75 9.23 5.66 18.15 12.87 23.22 3.92 2.72 10.32 5.56 18.5 3.31 3.3-.92 6.73-2.85 6.54-4.45-.8-6.42 3.74-12.32 10.19-13.12 6.54-.77 12.31 3.73 13.11 10.18 1.76 13.85-7.51 25.66-23.67 30.06-13.23 3.59-26.82 1.18-38.17-6.8-10.27-7.27-17.69-18.33-21-30.71-.44-.3-.9-.44-1.26-.79-37.72-35.97-68.56-53.37-99.97-56.36-48.47-4.67-101.33 10.48-156.99 44.97-21.29 13.15-40.29 29.86-60.36 47.51l-.22.19z"/><path fill="url(#c)" d="M-624.28 463.47c-30.39 26.73-61.85 54.38-101.76 68.7v.04c-22.1 7.91-47.53 9.41-70.47 2.82 7.36 8.42 15.74 15.9 25.84 22.6 47.07 31.18 100.39 7.21 152.01-15.99l.25-.12c6.44-2.87 12.71-5.7 18.91-8.39 89.21-38.64 187-40.15 268.19-4.2 33.4 14.79 64.6 34.26 94.8 53.11l.24.15c43.04 26.87 83.7 52.24 130.78 65.91 134.74 39.07 241.69-33.46 339.71-111.11 130.76-103.6 406.13 49.13 602.81-5.11-95.28 15.3-140.95 25.2-328.74-67.44-53.07-26.19-105.19-41.36-151.46-47.92-19.65-2.79-73.16 3.58-89.84 9.46-47.88 16.9-63.81 29.63-96.5 37.13-37.29 8.55-100.76 13.9-183.74-10.01-18.32-5.28-35.73-13.56-50.65-25.44-10.16-8.08-19.9-16.74-29.48-25.24l-.31-.28c-22.88-20.35-46.02-28.71-71.46-39.68-30.21-13.02-73.15-9.44-97.75 8.17-15.38 11.02-22.43 26.37-20.9 45.58.75 9.23 5.66 18.15 12.87 23.22 3.92 2.72 10.32 5.56 18.5 3.31 3.3-.92 6.73-2.85 6.54-4.45-.8-6.42 3.74-12.32 10.19-13.12 6.54-.77 12.31 3.73 13.11 10.18 1.76 13.85-7.51 25.66-23.67 30.06-13.23 3.59-26.82 1.18-38.17-6.8-10.27-7.27-17.69-18.33-21-30.71-.44-.3-.9-.44-1.26-.79-37.72-35.97-68.56-53.37-99.97-56.36-48.47-4.67-101.33 10.48-156.99 44.97-21.29 13.15-40.29 29.86-60.36 47.51l-.22.19z"/><path fill="url(#d)" d="M748.88 495.48c29.63 13.81 60.07 23.56 90.46 29.14a339 339 0 0 0 25.25 3.66c-9.22 1.71-18.17 3.1-26.82 3.62-29.66 1.83-56.71-4.49-95.62-19.36-14.65-6.37-29.41-14.23-43.85-23.36-13.31-8.42-26.85-17.35-39.94-25.98-26.81-17.68-54.53-35.96-83.05-51.74-25.77-14.24-52.8-25.81-80.31-34.36-46.82-14.54-96.46-20.73-147.55-18.39-24.22 1.11-49.57 4.36-75.35 9.65-5.83 1.21-11.56 2.5-17.28 3.79-25.9 5.86-50.51 11.37-76.83 6.12-14.86-2.96-28.84-9.15-41.82-18.33-.26-.3-.55-.56-.86-.8-18.69-14.08-23.17-50.89-17.93-69.1 3.76-13.06 9.36-24.09 16.66-32.76 18.33-21.82 50.51-31.46 78.18-23.43 24.84 7.2 43.18 34.37 40.03 59.36-1.8 14.34-8.57 27.06-18.1 34.03-7.99 5.84-17.82 7.76-29.22 5.66-.75-.13-1.49-.1-2.18.02-9.72-5.11-17.59-12.57-18.97-21.98-1.04-6.88 2.93-15.98 8.8-20.29 2.13-1.58 8.36-2.73 12.65-1.13 2.44.93 2.74 2.24 2.87 2.79a5.83 5.83 0 0 0 6.96 4.43c3.14-.69 5.14-3.82 4.44-6.96-1.16-5.18-4.76-9.15-10.15-11.18-7.43-2.79-17.82-1.65-23.65 2.63-9.34 6.83-15.13 20.34-13.47 31.45 3.87 26.05 37.45 39.18 58.95 39.82 17.21.53 33.61-4.46 49.49-9.28 6.39-1.94 12.42-3.78 18.5-5.27 29.55-7.26 52.33-11.29 73.83-13.11 57.69-4.85 112.6 3 167.87 24.05 41.81 15.89 74.26 44.49 108.62 74.76 30.21 26.62 61.46 54.14 99.39 71.81z"/><path fill="url(#e)" d="M748.88 495.48c29.63 13.81 60.07 23.56 90.46 29.14a339 339 0 0 0 25.25 3.66c-9.22 1.71-18.17 3.1-26.82 3.62-29.66 1.83-56.71-4.49-95.62-19.36-14.65-6.37-29.41-14.23-43.85-23.36-13.31-8.42-26.85-17.35-39.94-25.98-26.81-17.68-54.53-35.96-83.05-51.74-25.77-14.24-52.8-25.81-80.31-34.36-46.82-14.54-96.46-20.73-147.55-18.39-24.22 1.11-49.57 4.36-75.35 9.65-5.83 1.21-11.56 2.5-17.28 3.79-25.9 5.86-50.51 11.37-76.83 6.12-14.86-2.96-28.84-9.15-41.82-18.33-.26-.3-.55-.56-.86-.8-18.69-14.08-23.17-50.89-17.93-69.1 3.76-13.06 9.36-24.09 16.66-32.76 18.33-21.82 50.51-31.46 78.18-23.43 24.84 7.2 43.18 34.37 40.03 59.36-1.8 14.34-8.57 27.06-18.1 34.03-7.99 5.84-17.82 7.76-29.22 5.66-.75-.13-1.49-.1-2.18.02-9.72-5.11-17.59-12.57-18.97-21.98-1.04-6.88 2.93-15.98 8.8-20.29 2.13-1.58 8.36-2.73 12.65-1.13 2.44.93 2.74 2.24 2.87 2.79a5.83 5.83 0 0 0 6.96 4.43c3.14-.69 5.14-3.82 4.44-6.96-1.16-5.18-4.76-9.15-10.15-11.18-7.43-2.79-17.82-1.65-23.65 2.63-9.34 6.83-15.13 20.34-13.47 31.45 3.87 26.05 37.45 39.18 58.95 39.82 17.21.53 33.61-4.46 49.49-9.28 6.39-1.94 12.42-3.78 18.5-5.27 29.55-7.26 52.33-11.29 73.83-13.11 57.69-4.85 112.6 3 167.87 24.05 41.81 15.89 74.26 44.49 108.62 74.76 30.21 26.62 61.46 54.14 99.39 71.81z"/><defs><linearGradient id="a" x1="865.48" x2="-267.08" y1="513.26" y2="305.19" gradientUnits="userSpaceOnUse"><stop stop-color="#fcf0d6"/><stop offset="1" stop-color="#ffc446"/></linearGradient><linearGradient id="b" x1="831.08" x2="-795.35" y1="443.28" y2="552.41" gradientUnits="userSpaceOnUse"><stop stop-color="#fcf0d6"/><stop offset="1" stop-color="#ffc446"/></linearGradient><linearGradient id="c" x1="831.08" x2="-795.35" y1="443.28" y2="552.41" gradientUnits="userSpaceOnUse"><stop stop-color="#3c3024"/><stop offset="1" stop-color="#bd7b49"/></linearGradient><linearGradient id="d" x1="878.95" x2="113.6" y1="450.12" y2="309.51" gradientUnits="userSpaceOnUse"><stop stop-color="#fcf0d6"/><stop offset="1" stop-color="#ffc446"/></linearGradient><linearGradient id="e" x1="878.95" x2="113.6" y1="450.12" y2="309.51" gradientUnits="userSpaceOnUse"><stop stop-color="#3c3024"/><stop offset="1" stop-color="#bd7b49"/></linearGradient></defs></svg>
